icons/Category-4.svg

<svg width="24" height="24" viewBox="0 0 24 24" fill="none" xmlns="http://www.w3.org/2000/svg">
<g id="Category-4">
<path id="Vector" d="M8.9 4.5H5.9C5.07157 4.5 4.4 5.17157 4.4 6V9C4.4 9.82843 5.07157 10.5 5.9 10.5H8.9C9.72843 10.5 10.4 9.82843 10.4 9V6C10.4 5.17157 9.72843 4.5 8.9 4.5Z" stroke="#00153F" stroke-width="1.5" stroke-linecap="round" stroke-linejoin="round"/>
<path id="Vector_2" d="M10.4 16.5C10.4 14.8431 9.05686 13.5 7.4 13.5C5.74315 13.5 4.4 14.8431 4.4 16.5C4.4 18.1569 5.74315 19.5 7.4 19.5C9.05686 19.5 10.4 18.1569 10.4 16.5Z" stroke="#00153F" stroke-width="1.5" stroke-linecap="round" stroke-linejoin="round"/>
<path id="Vector_3" d="M17.9 13.5H14.9C14.0716 13.5 13.4 14.1716 13.4 15V18C13.4 18.8284 14.0716 19.5 14.9 19.5H17.9C18.7284 19.5 19.4 18.8284 19.4 18V15C19.4 14.1716 18.7284 13.5 17.9 13.5Z" stroke="#00153F" stroke-width="1.5" stroke-linecap="round" stroke-linejoin="round"/>
<path id="Vector_4" d="M16.5 4.64L13.4 10H19.6L16.5 4.64Z" stroke="#00153F" stroke-width="1.5" stroke-linecap="round" stroke-linejoin="round"/>
</g>
</svg>

<svg xmlns="http://www.w3.org/2000/svg" fill="none" viewBox="0 0 24 24"><path stroke="currentColor" stroke-linecap="round" stroke-linejoin="round" stroke-width="1.5" d="M8.9 4.5h-3A1.5 1.5 0 0 0 4.4 6v3a1.5 1.5 0 0 0 1.5 1.5h3A1.5 1.5 0 0 0 10.4 9V6a1.5 1.5 0 0 0-1.5-1.5Zm1.5 12a3 3 0 1 0-6 0 3 3 0 0 0 6 0Zm7.5-3h-3a1.5 1.5 0 0 0-1.5 1.5v3a1.5 1.5 0 0 0 1.5 1.5h3a1.5 1.5 0 0 0 1.5-1.5v-3a1.5 1.5 0 0 0-1.5-1.5Zm-1.4-8.86L13.4 10h6.2l-3.1-5.36Z"/></svg>
